X: 21616
T: Killavil Fancy, The
R: reel
M: 4/4
K: Gmajor
DGBG A2BA|GE E2 cEdE|DGBG AcBA|GEcE EDGA|
B3G AcBA|GEE2 cEdE|DGBG AcBA|GEcE EDEF|
G2Bd efge|dBB2 dBAB|G2Bd efge|dBAG EGGF|
G2Bd edge|dBB2 dega|bgag egge|dBAG EFGA|
|:B3G AcBA|GE E2 cEGE|DGBG A2BA|GEcE EDGA|
B3G AcBA|GEcE dEcE|DGBG AcBA|GEcE EDEF|
G2Bd efge|dBB2 dBAB|G2Bd efge|dBAG EGGF|
G2Bd edge|dBB2 dega|bgag egge|dBAG EFGA:|

